16x16/actions/view-financial-account-investment-security-closed.svg

<svg viewBox="0 0 16 16" xmlns="http://www.w3.org/2000/svg"><path d="m9 2-2.44 2.44.708.706 1.734-1.734 2.123 2.123.006-.004.004.004 2.828-2.828c.003.005-.707-.707-.707-.707l-2.126 2.125-2.126-2.125-.002.002zm-7 2.121v9.879h9.879l-1-1h-7.879v-4h2.46l3.536 3.535.002-.002.002.002.707-.707c-1.278-1.273-2.554-2.55-3.832-3.828h-2.875v-2.879zm1 1.879v1l1.88.002-1-1z" fill="#555e70"/><path d="m2.664 2-.707.707 11.293 11.293.707-.732z" fill="#da4453"/></svg>

<svg viewBox="0 0 16 16" xmlns="http://www.w3.org/2000/svg"><path d="M9 2 6.56 4.44l.708.706 1.734-1.734 2.123 2.123.006-.004.004.004 2.828-2.828c.003.005-.707-.707-.707-.707L11.13 4.125 9.004 2l-.002.002zM2 4.121V14h9.879l-1-1H3V9h2.46l3.536 3.535.002-.002.002.002.707-.707C8.429 10.555 7.153 9.278 5.875 8H3V5.121zM3 6v1l1.88.002-1-1z" fill="currentColor" style="color:#555e70"/><path d="m2.664 2-.707.707L13.25 14l.707-.732z" fill="currentColor" style="color:#da4453"/></svg>
